X:398
T:Veni Vecchio. RH.398
R:air
S:Rev.R.Harrison’s MS,c1815,Cumbria
O:England
A:Temple Sowerby,Cumbria
Z:vmp.Simon Wilson. Review PJH, 2008.
M:2/4
L:1/16
Q:1/4=60
K:D
de|f2d2f2d2|efge c2de|e2c2e2c2|defd A2fg|\
a2f2g2b2|abag f2ab/c’/|d’2d2 edef|d4z2:|!
|ag|f2e2d2e2|fgfe d2ag|fgef dfeg|fgfe d2d’c’|\
bc’ab gafg|efde cdBc|Add2 e2c2|d4z2||!
ab|c2c2c2e2|edd4fa|g2g2f2f2|e2A2 A2ab|\
c2c2c2e2|edd2zdfa|agg2 gff2|e2a2a2 cd|!
ea^gf ea^gf|e2e2z2cd|ea^gf ea^gf|e4ef^ga|\
b2b2 a^gfe|a4ef^ga|!
b2b2 a^gfg|(a4a)(^gag)|\
(a4a)(^gag)|(a^gab agf^e)|f^efg f=e de|]

